X: 1
T: The Green Fields Of Glentown
R: reel
M: 4/4
L: 1/8
K: Ador
EA,~A,2 E2DB,|G,B,~B,2 G,A,B,D|EA,~A,2 E2DE|GBeB dBAB|
eB~B2 eBdB|AE~E2 DG,B,G,|A,E~E2 E2DE|GEDB, B,A,~A,2:|
|:A2EA cAEA|G2DB, G,A,B,D|EA~A2 GABd|edBA aged|
bg~g2 afge|dB~B2 GEDB,|A,E~E2 E2DE|GEDB, B,A,~A,2:|
|:A2EA cAEA|aged bage|dG~G2 DGBd|gded Bdgd|
e2Be eBdB|AE~E2 DG,B,G,|A,E~E2 E2DE|GEDB, B,A,~A,2:|


Tune 671	Setting 13717

